X: 7218
T: Claire's
R: jig
M: 6/8
K: Dmajor
{E}F3 ABd|ABB {c}BAF|FEF ABd|BAF ~E2D|
FEF ABd|ABB {c}BAF|FED {F}EDB,|DEF ~E2D:|
ABd efb|afd edB|ABd efg|~f3 edB|
ABd efb|afd edB|gfe fed|~B2 AFE:|

